X: 1
T: Cloch Na Ceithre Mhile
T:The Four Mile Stone
C: Frankie Kennedy on Ceoul Aduaidh
M: 4/4
L: 1/8
R: reel
K:Ador
A2eA ~A2eA|~A2ge dBAB|G2(3BAG dGBA|G~B3 GBdB|
A2eA ~A2AB|(3cBA BG AGAB| (3cBA BG AG.E A|GEDB GA (3BAG:|
|:AA ~A2 eA ~A2|A ~e3 d2BG|AGdG eG .d2|(3ded (3BdB (3GAG DA|
AE ~A2 AB (3cde|AG ED~E2AB|(3cBA BG AGEA|GEDB GAAG:|
